src/lib/images/svgs/icon-trophy.svg

<?xml version="1.0" encoding="UTF-8"?><svg xmlns="http://www.w3.org/2000/svg" xmlns:xlink="http://www.w3.org/1999/xlink" width="64px" height="64px" viewBox="0 0 64 64" version="1.1"><g id="surface1"><path style=" stroke:none;fill-rule:evenodd;fill:rgb(93.72549%,26.666667%,26.666667%);fill-opacity:1;" d="M 42 50 L 42 44 L 34 44 L 34 36 C 40.628906 35.996094 46 30.632812 46 24.015625 L 46 24 C 53 21 54 6 54 6 L 12 6 C 12 6 13 21 20 24 L 20 24.015625 C 20 30.628906 25.382812 35.996094 32 36 L 32 44 L 24 44 L 24 50 L 18 50 L 18 58 L 48 58 L 48 50 Z M 22 8 L 22 23.984375 C 22 29.515625 26.480469 34 32.003906 34 L 33.996094 34 C 39.523438 34 44 29.53125 44 23.984375 L 44 8 Z M 20 8 L 20 21.800781 C 15.308594 18.441406 14.199219 8 14.199219 8 Z M 45.964844 8 L 45.964844 21.761719 C 50.65625 18.402344 51.765625 8 51.765625 8 Z M 26 46 L 26 50 L 40 50 L 40 46 Z M 20 52 L 20 56 L 46 56 L 46 52 Z M 20 52 "/></g></svg>

<svg xmlns="http://www.w3.org/2000/svg" width="64" height="64"><path d="M42 50v-6h-8v-8c6.629-.004 12-5.367 12-11.984V24c7-3 8-18 8-18H12s1 15 8 18v.016c0 6.613 5.383 11.98 12 11.984v8h-8v6h-6v8h30v-8ZM22 8v15.984C22 29.516 26.48 34 32.004 34h1.992A9.998 9.998 0 0 0 44 23.984V8Zm-2 0v13.8C15.309 18.442 14.2 8 14.2 8Zm25.965 0v13.762C50.656 18.402 51.765 8 51.765 8ZM26 46v4h14v-4Zm-6 6v4h26v-4Zm0 0" style="stroke:none;fill-rule:evenodd;fill:#ef4444;fill-opacity:1"/></svg>
